X: 16868
T: Haste To The Wedding
R: jig
M: 6/8
K: Dmajor
|:AFA A2f|ede fdB|ABA AFA|GFG EFG|
AFA Agf|ede fdB|ABA faf|1 ded d3:|2 ded dfg||
|:afa afa|bgb bgb|afa afa|gfg efg|
a3 f3|ede fdB|ABA faf|1 ded dfg:|2 ded d3||

